!!!SOCIAL_FUNCTION:	songs in honor of an individual
!!!PDT:	1918

Specific Region: Dakotas, Minnesota, Montana, Nebraska
!!!REG: Dakotas and Montana
!!!LING_GROUP: Siouan
!!!LANG: Tone
!!!OTL@ENG: Whenever the Tribe Assembles
!!!ONM: No. 227
**kern
*Ifeme
*clefG2
*k[b-e-a-d-g-c-]
*M3/4
*MM60
4ee-
4b-
8cc
8b-
=2
2.b-
=3
8b-
8b-
8cc
8b-
8b-
16b-
16a-
=4
16a-
8a-
16g
8a-
[8a-
4a-]
=5
8g-
16g-
16e-
16e-
8.e-
[4e-
=6||
*M2/4
2e-]
=7
16a-
8a-
16g
16a-
8.a-
=8||
*M3/4
2a-
8g-
8g-
=9||
*M2/4
4e-
8.e-
16e-
=10
2e-
=11||
*M3/4
2e-
8e-
8b-
=12
4b-
4b-
8ee-
16.b-
32a-
=
16a-
8.a-
16b-
(8a-
16g)
=13||
*M2/4
4a-
4a-
=14
8g-
8g-
8g-
8g-
=15
16g-
8.e-
4e-
=16||
*M3/4
2.e-
=17
8a-
(16.a-
32g-)
16a-
8.a-
4a-
=18
8g-
8g-
16g-
8.e-
4e-
=19
2e-
4r
==
*-
!!!CNT: Native American -- Sioux
!!!MRD: 1911/07//-1914///
!!!OCL: Frances Densmore
!!!YOR1: Teton Sioux Music, Bulletin 61,
!!!YOR2: Bureau of American Ethnology, Smithsonian Institution
!!!PPR: Government Printing Office
!!!PPP: Washington, D.C.
!!!PDT: 1918///
!!!ENC: Craig Stuart Sapp
!!!END: 2002/03/25/
!!!EEV: 2002/03/31/
!!!AGN: Song in Honor of an Individual
!!!MPN@@SIO: Ini'laoeng'wing
!!!MPN@ENG: Silent Woman
!!!TXO: Teton Sioux
!!!MLC: Standing Rock Reservation, South Dakota, United States of America
!!!ARL: 45.9/-100.7#
!!!catalog: Catalogue No. 684
!!!PPG: 505
!!!EFL: 232/245
!!!VTS: 2117793757
